public/assets/patterns/hexagons.svg

<svg height="49" viewBox="0 0 28 49" width="28" xmlns="http://www.w3.org/2000/svg"><path d="m13.99 9.25 13 7.5v15l-13 7.5-12.99-7.5v-15zm-10.99 8.65v12.7l10.99 6.34 11-6.35v-12.69l-11-6.34zm-3-2.9 12.98-7.5v-7.5h-2v6.35l-10.98 6.34v2.3zm0 18.5 12.98 7.5v8h-2v-6.85l-10.98-6.34v-2.3zm15-33.5v7.5l12.99 7.5h.01v-2.31h-.01l-10.99-6.34v-6.35zm0 49v-8l12.99-7.5h.01v2.31h-.01l-10.99 6.34v6.85z"/></svg>

<svg xmlns="http://www.w3.org/2000/svg" width="28" height="49" viewBox="0 0 28 49"><g fill-rule="evenodd"><g id="hexagons" fill="#000" fill-rule="nonzero"><path d="M13.99 9.25l13 7.5v15l-13 7.5L1 31.75v-15l12.99-7.5zM3 17.9v12.7l10.99 6.34 11-6.35V17.9l-11-6.34L3 17.9zM0 15l12.98-7.5V0h-2v6.35L0 12.69v2.3zm0 18.5L12.98 41v8h-2v-6.85L0 35.81v-2.3zM15 0v7.5L27.99 15H28v-2.31h-.01L17 6.35V0h-2zm0 49v-8l12.99-7.5H28v2.31h-.01L17 42.15V49h-2z"/></g></g></svg>
